svg/card_off_outline.svg

<svg xmlns="http://www.w3.org/2000/svg" viewBox="0 0 24 24"><path d="m9.2 6-2-2H20c1.11 0 2 .89 2 2v12c0 .24-.04.47-.12.68L20 16.8V6zm12.91 15.46-1.27 1.27L18.11 20H4a2 2 0 0 1-2-2V6c0-.58.25-1.1.65-1.46L1.11 3l1.28-1.27L6.66 6l11.99 12h.01l1.91 1.91h-.01zm-6-3.46-12-12H4v12z"/></svg>

<?xml version="1.0" encoding="UTF-8"?><!DOCTYPE svg PUBLIC "-//W3C//DTD SVG 1.1//EN" "http://www.w3.org/Graphics/SVG/1.1/DTD/svg11.dtd"><svg xmlns="http://www.w3.org/2000/svg" xmlns:xlink="http://www.w3.org/1999/xlink" version="1.1" id="mdi-card-off-outline" width="24" height="24" viewBox="0 0 24 24"><path d="M9.2 6L7.2 4H20C21.11 4 22 4.89 22 6V18C22 18.24 21.96 18.47 21.88 18.68L20 16.8V6H9.2M22.11 21.46L20.84 22.73L18.11 20H4C2.9 20 2 19.11 2 18V6C2 5.42 2.25 4.9 2.65 4.54L1.11 3L2.39 1.73L6.66 6L18.65 18H18.66L20.57 19.91L20.56 19.91L22.11 21.46M16.11 18L4.11 6H4V18H16.11Z" /></svg>
